X: 213
T:Ninepins
% Nottingham Music Database
P:AAB
S:Trad, via EF
M:6/8
K:D
P:A
|:d/2e/2|"D"f2f f2f|"A7"efe "D"d2d|"A7"c2d ecA|"D"d2e fde|
"D"f2f f2f|"A7"efe "D"def|"G"g2f "Em"e2d|"A7"cBc "D"d2:|
K:A
P:B
|:c/2d/2|"A"e2e cBA|"D"def "E7"e2e|"A"efe cBA|"D"def "E7"e2e|"A"a2a "E"g2g|
"D"f2f "A"e2e|"E7"d2d "A"c2c|"E7"BAB "A7"A3|\
K:D
"D"a2a a2a|"A7"gag "D"f3|"A7"e2f gec|
"D"f2g a3|\
K:D
"D"a2a a2a|"A7"gag "D"fga|"G"b2a "Em"g2f|"A7"edc "D"d2:|<end>
<start>
